icons/1_Primary/HEXONET.svg

<svg xmlns="http://www.w3.org/2000/svg" viewBox="0 0 1024 1024">
   <circle cx="512" cy="512" r="512" style="fill:#002856"/>
   <path d="M218.55 471.44h24.61v81.13h-24.07v-30.76h-41.84v30.76H153v-81.13h24.25v32.1h41.3Zm319.37 18.27h-36l-5.55 5.55v33.49l5.55 5.55h30.48l5.55-5.55v-39Zm24.32-18.28v65.84L547 552.57h-59.62l-15.29-15.29v-50.55l15.29-15.29h74.86Zm218.6 0v18.28h32.77v62.85h24.61v-62.85H871v-18.27Zm-102.91 81.14h90.15V534.3h-65.9v-12.49h65.9v-18.27h-65.9v-13.83h65.9v-18.27h-90.15Zm-28.06-81.13H575v81.13h24.25v-62.86h36l5.54 5.55v57.31h24.32v-65.84Zm-178.3-.34 14.34-14.34h-46.26l-14.34 14.34-17.77 17.77-17.43-17.43h-14.93l24.89 24.89 7.46 7.46 7.46-7.46 24.89-24.89h16.41l-33.1 33.1-7.44 7.46 7.46 7.46 33.1 33.1h14.93L456.64 538l-26-26 26-26Zm-125.51 63.26v-.07h-65.9v-12.48h65.9v-18.28h-65.9v-13.82h65.9v-.06l-3.61-3.65-14.6-14.59h-71.94v81.13h71.95L342.45 538Zm68.94-6.69-7.46-7.46-7.46 7.46-24.9 24.9h-16.43l3.28-3.28 29.82-29.82 7.46-7.46-7.46-7.46L362 474.72l-3.28-3.28h-14.89L358.42 486l3.62 3.62L384.39 512 362 534.36l-3.58 3.64-14.59 14.59-.34.33-14.34 14.34h46.26l14.34-14.34 17.77-17.77L425 552.57h14.93Z" style="fill:#fff"/>
</svg>

<svg width="1024" height="1024" viewBox="0 0 1024 1024" fill="none" xmlns="http://www.w3.org/2000/svg">
<g clip-path="url(#clip0_2_2397)">
<path d="M512 1024C794.77 1024 1024 794.77 1024 512C1024 229.23 794.77 0 512 0C229.23 0 0 229.23 0 512C0 794.77 229.23 1024 512 1024Z" fill="#54688C"/>
<path d="M218.55 471.44H243.16V552.57H219.09V521.81H177.25V552.57H153V471.44H177.25V503.54H218.55V471.44ZM537.92 489.71H501.92L496.37 495.26V528.75L501.92 534.3H532.4L537.95 528.75V489.75L537.92 489.71ZM562.24 471.43V537.27L547 552.57H487.38L472.09 537.28V486.73L487.38 471.44H562.24V471.43ZM780.84 471.43V489.71H813.61V552.56H838.22V489.71H871V471.44L780.84 471.43ZM677.93 552.57H768.08V534.3H702.18V521.81H768.08V503.54H702.18V489.71H768.08V471.44H677.93V552.57ZM649.87 471.44H575V552.57H599.25V489.71H635.25L640.79 495.26V552.57H665.11V486.73L649.87 471.44ZM471.57 471.1L485.91 456.76H439.65L425.31 471.1L407.54 488.87L390.11 471.44H375.18L400.07 496.33L407.53 503.79L414.99 496.33L439.88 471.44H456.29L423.19 504.54L415.75 512L423.21 519.46L456.31 552.56H471.24L456.64 538L430.64 512L456.64 486L471.57 471.1ZM346.06 534.36V534.29H280.16V521.81H346.06V503.53H280.16V489.71H346.06V489.65L342.45 486L327.85 471.41H255.91V552.54H327.86L342.45 538L346.06 534.36ZM415 527.67L407.54 520.21L400.08 527.67L375.18 552.57H358.75L362.03 549.29L391.85 519.47L399.31 512.01L391.85 504.55L362 474.72L358.72 471.44H343.83L358.42 486L362.04 489.62L384.39 512L362 534.36L358.42 538L343.83 552.59L343.49 552.92L329.15 567.26H375.41L389.75 552.92L407.52 535.15L425 552.57H439.93L415 527.67Z" fill="white"/>
</g>
<defs>
<clipPath id="clip0_2_2397">
<rect width="1024" height="1024" fill="white"/>
</clipPath>
</defs>
</svg>
